X:576
%%etbk:tnset id:78,pos:4,rep:3x,ant:
%%etbk:video src:ytube,cde:Fh2Z1JY3h9w,desc:
%%etbk:color #ffe6e6
%%etbk:pldat 2016-09-07T15:56,2016-04-11T18:20,2015-11-29T15:25,2015-07-17T11:28,2015-07-07T11:03,2015-03-28T16:04,2015-01-21T18:32,2015-01-18T11:01,2014-12-31T14:57,2014-12-18T18:09,2014-12-14T15:20,2014-12-13T16:18,2014-12-10T16:35,2014-12-09T17:45,2014-12-07T10:09,2014-05-20T16:52,2014-05-17T14:19,2014-05-14T17:13,2014-05-12T17:57,2014-05-11T11:58,2014-05-09T19:28,2014-05-08T18:08,2014-05-07T16:36,2014-05-06T16:35,2014-04-01T15:31
T: Paddy Fahy's
Z: Piano Box Version by Martin Fleischmann
H: Created 2014-04-01 /  Last Modified 2015-11-29
R: jig
M: 6/8
L: 1/8
K: Dmix
A|: "D"!1!DF!1!A !4!d2!5!e| !4!d!3!^c!1!A !1!GGG| "D"!2!A!1!D!1!D "C"!3!=cBc| !5!edc !2!B/2c/2d!2!A|
"D"!1!DFA !4!d2!5!e| !4!d!3!^c!1!A !1!GGG| "D"!2!A!5!d^c !2!A!1!G"A"!2!E| "D"!3!F!1!DD D2:|
A|: "D"!3!d^cd !5!f!4!e!3!d| "A"!2!^c!1!AA A2B| "C"!3!=cBc !5!edc| "G"!2!B/2c/2d!1!G GFG|
"D"!1!A2!5!f !5!fe!3!d| "A"!2!^c!1!A!4!G !2!EF!4!G|"D"!2!A!5!d^c !2!A!1!G"A"!2!E| "D"!3!F!1!DD D2:|


